T: Minor
M: 3/4
L: 1/8
K: Emin
B2 B>c d>e | B2 B2 c>B | A2 B>A G>F | G2 E2 F>E |B3 c d>e | B4 c>B | A2 B>A G>E | F3 :|c2 c>B c>d | (3efe d2 c2 | B2 B>A B>c | B>E G>B e>d |c3 B c>d | e2 (3ded c2 |1 B2 B>E G>E | F3 :|2 B2 B>G F>G | E3 ||
